X: 4
T: The Road To Ballymac
R: reel
M: 4/4
L: 1/8
K: Gmaj
|: GE |DG G/G/G BAGA | Bd d/d/d e2 de | gd d/d/d egde | gBdB ABGE |
DG G2 BAGA | Bd d/d/d e2 de | gd d/d/d egdB | ABGF G2 :|
|: GA |Bd d/d/d edBd | eg g/f/g a2 ga | bgag egde | gBdB ABGA |
Bd d/d/d edBd | eg g/f/g a2 ga | bgag egdB | ABGF G2 :|


Tune 2251	Setting 15617

